X:1
T:Title
%%score 1 { 2 | 3 }
L:1/8
Q:1/4=95
M:3/4
K:Eb
V:1 treble nm="Grand Piano, Soprano"
V:2 treble nm="Choir Pad, Great Judgment Day Morris"
V:3 bass 
V:1
 [GB]>[GB] [GB]3 [EG] | E>[EF] [EG]2 [EG]2 | [EB]>[EB] [DB]3 [DA] | [DF]>[Ac] [GB]2 [GB]2 | %4
w: By~Lelia~Naylor~Morris * * *||||
 [GB]>[GB] [Ge]3 [GB] | [Ac]>[Ac] [GB]2 [EG]2 | [FA]>[FA] [EG]2 E2 | [DF]2 E4 | %8
w: ||||
 [FA]>[EG] [DF]3 [Ac] | [GB]>[FA] [EG]2 [GB]2 | [Ge]>[Ge] [Fd]3 [Fc] | [FB]>[F=A] [FB]4 | %12
w: ||||
 [AB]>[AB] [Ge]3 [GB] | [Ac]>[Ac] [GB]2 [EG]2 | [FA]>[FA] [EG]2 E2 | [DF]2 E4- | E4 z2 |] %17
w: |||||
V:2
 E>E E3 B, | G,>[K:bass]A, B,2 B,2 | G,>G, A,3 B, | B,>[K:treble]D E2 E2 | E>E B,3 E | E>E E2 B,2 | %6
 C>C[K:bass] B,2 G,2 | A,2 G,4 | B,>B, B,3 B, | B,>B, B,2 E2 | B,>B, B,3[K:treble] E | D>E D4 | %12
 D>B, B,3 E | E>E E2 B,2 | C>C[K:bass] B,2 G,2 | A,2 G,4- | G,4 z2 |] %17
V:3
 E,>E, E,3 E, | E,>E, E,2 E,2 | E,>E, F,3 B,, | B,,>B,, E,2 E,2 | E,>E, E,3 E, | A,>A, E,2 E,2 | %6
 A,>A, z2 B,,2 | B,,2 E,4 | B,,>B,, B,,3 B,, | B,,>B,, E,2 E,2 | E,>E, F,3 F, | F,>F, B,,4 | %12
 B,2 E,3 E, | A,>A, E,2 E,2 | A,>A, z2 B,,2 | B,,2 E,4- | E,4 z2 |] %17

